X:1
T:Et e pur vero
T:Et e pur vero
T:Giovanni Croce Chiozotto
T:Aria Quarta
T:Source : Canzonette a 3 voci---Libro primo---Venetia---G.Vincenti---1601. Editor : André Vierendeels (14/02/15).
C:Giovanni Croce Ghizollo
%%score [ 1 2 3 ]
L:1/8
Q:1/4=120
M:4/4
K:C
V:1 treble nm="Canto 1" snm="C 1"
V:2 treble nm="Canto 2" snm="C 2"
V:3 treble-8 nm="Tenor" snm="T"
V:1
 z2 d2 e2 g2 | c2 d2 e4 :: z2 c2 c2 c2 | c2 B2 A4- | A4 A4 | e4 c4 | d4 d4- | d2 A2 A4 | B8 :| %9
w: Et è pur|ve- r'ohi- me,|so- ste- gno|del cor mi-||che pro-|vi duol|_ si ri-|o.|
w: Et è pur|ve- r'ohi- me,|ca- gion d'o-|gni mio be-|* ne,|ch'io mo-|ro'in tan-|* te pe-|ne.|
w: Et è pur|ve- r'ohi- me,|fon- te d'o-|gni mia gio-|* ia,|ch'io ti|veg- gia'e|_ mi mo-|ia.|
w: Al fin pur|trop' ve- ro|ch'il cor a|te do- nan-|* do,|vi- va'e|mi- mo-|* r'a- man-|do|
V:2
 z2 B2 c2 G2 | A2 B2 c4 :: z2 A2 A2 A2 | A2 G2 ^F4- | F4 ^F2 F2 | G2 G2 A4 | ^F4 G4- | G2 ^FE F4 | %8
w: Et è pur|ve- r'ohi- me,|so- ste- gno|del cor mi-|* o, che|pro- vi duol|si ri-||
w: Et è pur|ve- r'ohi- me,|ca- gion d'o-|gni mio be-|* ne, ch'io-|mo- ro'in tan-|te pe-||
w: Et è pur|ve- r'ohi- me,|fon- te d'o-|gni mia gio-|* ia, ch'io|ti veg- gia'e|mi mo-||
w: Al fin pur|trop' ve- ro|ch'il cor a|te do- nan-|* do, vi-|va'e mi mo-|r'a- man-||
"^0" G8 :| %9
w: o.|
w: ne.|
w: ia.|
w: do.|
V:3
 z2 g2 c2 e2 | f2 d2 c4 :: z2 f2 f2 f2 | f2 g2 d4- | d4 d2 d2 | c4 A4 | B6 c2 | d8 | G8 :| %9
w: Et è pur|ve- r'ohi- me,|so- ste- gno|del cor mi-|* o, che|pr- vi|duol si|ri-|o.|
w: Et è pur|ve- r'ohi- me,|ca- gion d'o-|gni mio be-|* ne, ch'io|mo- ro'in|tan- te|pe-|ne.|
w: Et è pur|ve- r'ohi- me,|fon- te d'o-|gnor mia gio-|* ia, ch'io|ti veg-|gia'e mi|mo-|ia.|
w: Al fin pur|trop' ve- ro,|ch'il cor a|te do- nan-|* do, vi|va'e mi|mo- r'a-|man-|do.|

